X: 1
T: an Honest Shaker
O: from David A. Kaynor
R: Jig
S: https://natunelist.net/an-honest-shaker/
N: "dance tune from the former Shaker community at North Union, Ohio" according to tunearch.org
B: Miller "Fiddler’s Throne" 2004 p.1
M: 6/8
L: 1/8
K: D	% and Bm
z "^A"|\
"D"f2f aa | f2e d2e | f2e d2e | "Bm"f3 f2f |\
"D"a2a f2e | d2e f2B | "Bm"B2c d2B | B3 B2 :|
|: A "^B"|\
"Bm"B2B d2d | BdB B2A | "D"A2A d2A | "Bm"B3 B2A |\
"Em"B2e e2d | "F#m"e2f f2a | "A"e2e d2A | "Bm"B3 B2 :|
